X:3658
L:1/8
Q:1/4=90
M:4/4
K:D
 d'2 | [Aa]4 f2 d'2 | [Aa]4 f2 a2 | [Bg]2 [df]2 [ce]2 A2 | dcde fgaf | gfed cdec | d4 D2 || ag | 
 [Df]4 e2 d2 | ag [Df]2 e2 d2 | fg a2 [Ae]2 e2 | fg a2 [Ae]2 e2 | fg a2 [Aa]2 a2 | b2 ag [Aa]4 | 
 fg a2 FG A2 | [Bg]2 [df]2 [ce]2 A2 | [dD]cde fgaf | gfed [cA,]dec | d4 D2 |]

